piggy-bank.svg

<svg fill="currentColor" viewBox="0 0 24 24"><path d="m19.83 7.5-2.27-2.27c.07-.42.18-.81.32-1.15A1.498 1.498 0 0 0 16.5 2c-1.64 0-3.09.79-4 2h-5C4.46 4 2 6.46 2 9.5S4.5 21 4.5 21H10v-2h2v2h5.5l1.68-5.59 2.82-.94V7.5zM13 9H8V7h5zm3 2c-.55 0-1-.45-1-1s.45-1 1-1 1 .45 1 1-.45 1-1 1"/></svg>

<svg  viewBox="0 0 24 24" fill="currentColor"><path  d="M19.83 7.5L17.56 5.23C17.63 4.81 17.74 4.42 17.88 4.08C17.96 3.9 18 3.71 18 3.5C18 2.67 17.33 2 16.5 2C14.86 2 13.41 2.79 12.5 4H7.5C4.46 4 2 6.46 2 9.5S4.5 21 4.5 21H10V19H12V21H17.5L19.18 15.41L22 14.47V7.5H19.83M13 9H8V7H13V9M16 11C15.45 11 15 10.55 15 10S15.45 9 16 9C16.55 9 17 9.45 17 10S16.55 11 16 11Z"/></svg>
